X:810
T:(untitled)
T:Musique pour le Lour - continued
C:John Malchair's Third Collection of Tunes
F:https://www.vwml.org/record/Malchair/3619/p81
F:www.vwml.org/topics/historic-dance-and-tune-books/Malchair
Z:Eric Conrad Mar 2020
M:C
L:1/8
K:G
%%MIDI program 68 % oboe (MIDI's take on a powerful woodwind - does this resemble the sound of the lur?)
P:A
G>GB>d d2c2 | B>GA>F G>AB>G | G>GB>d d2c2 | B>G {B}AG/F/ G4 ||
K:Gm
P:B
G>BA>G G2^F2 | G>AB>c d2D2 | G>BA>G G2^F2 | G>AB>c d3c |
{c}B2AG {B}A2G^F | G2G2 z4 | \
% Malchair uses a single bar line here
M:3/4
B>dc>ed2 | BB/d/ cc/e/ d2 |
d^fgabd | d2c2z2 | ABcABG | BBA^FD2 |
ABcBcB | BBA^FD2 | ABcABG | B/A/G/^F/ G2G2 ||
M:C
K:G
P:C
G>GB>d d2c2 | B>GA>F G>AB>G | G>GB>d d2c2 | B>G (B/A/)(G/F/) !fermata!G4 |]

